X: 27
T:Gan Ainm
R:Reel
S:Martin and Christine Dowling, Wisconsin (fiddle,flute)
D:Session tape, Bangor - late 80's
M:4/4
Z:Bernie Stocks
K:G %i.e. 1 sharp
e2de cAAG | ABcd e3c | dcBA GABc | dcBA GABc | d2cd BGG2 | ABcd e3f |
gG(3.G.G.G GABd | e2de cAA2 :: aged cdef | geaf g2eg | aged cdef |
gedg eAA2 | aged cdef | geaf g3e | defg a3f | gedg eAA2 :|
<end>
<start>
